
// "/home/wil/.config/tidal/init/effects/sidechain.scd".load;

// "/home/wil/.config/tidal/init/effects/AnalogTape.scd".load;

// "/home/wil/.config/tidal/init/effects/multiband_comp.scd".load;


"/Users/will/.config/tidal/init/effects/sidechain.scd".load;

// "/home/wil/.config/tidal/init/effects/AnalogTape.scd".load;

// "/Users/will/.config/tidal/init/effects/multiband_comp.scd".load;
"/Users/will/.config/tidal/init/effects/multiband_comp.scd".load;


"/Users/will/.config/tidal/init/synths/superDirtControls.scd".load;
"SuperDirt OSC file reloading system initialized.".postln;



"/Users/will/.config/tidal/init/synths/mi-ugens.scd".load;
"loaded mi-ugens.scd".postln;

"/Users/will/.config/tidal/init/synths/gutter_synth.scd".load;
"/Users/will/.config/tidal/init/synths/fmx7.scd".load;

// "loaded gutter_synth.scd".postln;


"/Users/will/.config/tidal/init/effects/gate.scd".load;
"/Users/will/.config/tidal/init/effects/chorus.scd".load;
// "/Users/will/.config/tidal/init/effects/foaTransforms.scd".load;


"active_scripts.scd loaded".postln;