(
var numChannels = ~dirt.numChannels;

~dirt.addModule('fm', { |dirtEvent|
	dirtEvent.sendSynth('dirt_fm' ++ ~dirt.numChannels,
		[fm: ~fm,	fmf: ~fmf,  out: ~out	]
	)
}, { ~fm.notNil or: { ~fmf.notNil } }); // play synth only if at least one of the two was given

SynthDef("dirt_fm" ++ numChannels, { |out, fm, fmf |
	var signal, mod;
	signal = In.ar(out, numChannels);
	mod = SinOsc.ar(fmf * (1.0 + fm * signal), mul:fm);
	ReplaceOut.ar(out, mod + (1.0-fm)*signal);
}).add;
)